logos/mention.svg

<?xml version="1.0" encoding="UTF-8" standalone="no"?>
<svg width="512px" height="100px" viewBox="0 0 512 100" version="1.1" xmlns="http://www.w3.org/2000/svg" xmlns:xlink="http://www.w3.org/1999/xlink" preserveAspectRatio="xMidYMid">
    <g>
        <path d="M122.28911,73.8327026 L126.829652,73.8327026 C127.963943,73.8327026 128.584081,73.5179575 128.584081,71.0952329 L128.584081,41.5208054 C128.584081,38.9947146 128.17028,38.3629014 126.829652,38.3629014 L122.28911,38.3629014 L122.28911,30.4687219 L130.339638,30.4687219 C135.395461,30.4687219 140.037481,29.9425981 142.309444,29.4164744 L142.309444,39.5208382 C145.4045,32.7845957 150.357717,29.1005678 157.993317,29.1005678 C166.042719,29.1005678 171.202272,32.8891234 172.955575,40.7833029 C175.639083,33.2050299 181.004975,29.1005678 189.46705,29.1005678 C200.405171,29.1005678 206.081132,35.3095251 206.081132,49.0979169 L206.081132,71.0940714 C206.081132,73.5167961 206.699015,73.8315412 207.834433,73.8315412 L212.373849,73.8315412 L212.373849,81.7257206 L186.577204,81.7257206 L186.577204,73.8315412 L190.395004,73.8315412 C191.531549,73.8315412 192.149433,73.5167961 192.149433,71.0940714 L192.149433,49.9411085 C192.149433,42.0457676 189.569656,38.5731186 183.894822,38.5731186 C177.496117,38.5731186 174.298456,43.7309898 174.298456,53.519447 L174.298456,71.0952329 C174.298456,73.5179575 174.917468,73.8327026 176.051758,73.8327026 L180.385964,73.8327026 L180.385964,81.7268822 L154.795656,81.7268822 L154.795656,73.8327026 L158.613456,73.8327026 C159.748874,73.8327026 160.367885,73.5179575 160.367885,71.0952329 L160.367885,48.9933889 C160.367885,42.046929 157.479165,38.5731186 152.112146,38.5731186 C145.713442,38.5731186 142.515781,43.7309898 142.515781,53.519447 L142.515781,71.0952329 C142.515781,73.5179575 143.13592,73.8327026 144.27021,73.8327026 L148.294347,73.8327026 L148.294347,81.7268822 L122.290237,81.7268822 L122.290237,73.8327026 L122.28911,73.8327026 L122.28911,73.8327026 Z M229.287853,58.7818462 C229.596794,68.3577635 234.241069,74.6747329 243.62997,74.6747329 C250.750291,74.6747329 254.877032,70.9907052 257.251601,64.7817479 L265.094664,68.3589249 C262.30855,76.5701721 255.498298,83.0961974 242.49568,83.0961974 C224.230902,83.0961974 215.048338,71.8327354 215.048338,56.0455379 C215.048338,40.0469619 225.675262,29.1017292 241.155053,29.1017292 C257.04639,29.1017292 265.815153,39.2060931 265.815153,56.1512273 L265.815153,58.7818462 L229.287853,58.7818462 L229.287853,58.7818462 Z M229.081514,51.6251692 L251.781976,51.6251692 C251.576767,41.2048989 248.480583,37.2061258 241.155053,37.2061258 C233.827268,37.2061258 229.699399,41.5208054 229.081514,51.6251692 L229.081514,51.6251692 Z M289.338707,39.6265276 C292.537496,32.5743783 298.314934,29.1017292 306.365463,29.1017292 C316.994641,29.1017292 322.669474,35.416376 322.669474,48.2570478 L322.669474,71.0963943 C322.669474,73.519119 323.288484,73.8338641 324.422776,73.8338641 L328.962191,73.8338641 L328.962191,81.7280436 L302.95921,81.7280436 L302.95921,73.8338641 L306.983347,73.8338641 C308.118764,73.8338641 308.737775,73.519119 308.737775,71.0963943 L308.737775,48.5717929 C308.737775,41.4139545 306.157999,38.3629014 300.482037,38.3629014 C293.569181,38.3629014 289.543917,43.6241389 289.543917,55.0966569 L289.543917,71.0952329 C289.543917,73.5179575 290.161801,73.8327026 291.297219,73.8327026 L295.322483,73.8327026 L295.322483,81.7268822 L269.320629,81.7268822 L269.320629,73.8327026 L273.860044,73.8327026 C274.995462,73.8327026 275.6156,73.5179575 275.6156,71.0952329 L275.6156,41.5208054 C275.6156,38.9947146 275.201799,38.3629014 273.860044,38.3629014 L269.320629,38.3629014 L269.320629,30.4687219 L277.367774,30.4687219 C282.424724,30.4687219 287.066745,29.9425981 289.338707,29.4164744 L289.338707,39.6265276 L289.338707,39.6265276 Z M336.799618,67.0964599 L336.799618,38.3629014 L329.989367,38.3629014 L329.989367,31.3119136 C329.989367,31.3119136 334.222095,30.996007 333.909773,30.996007 C337.418628,30.364194 339.688336,28.9960399 340.101012,25.2074842 L341.133826,15.9463121 L350.730191,15.9463121 L350.730191,30.4710448 L360.738102,30.4710448 L360.738102,38.3640626 L350.420122,38.3640626 L350.420122,66.8850814 C350.420122,72.4645485 352.382014,74.3599878 356.817697,74.3599878 C358.985927,74.3599878 360.325429,73.9372307 361.565707,73.5179575 L361.565707,81.6223541 C359.604941,82.2530057 356.199812,82.9905083 352.588352,82.9905083 C341.237557,82.9893468 336.799618,78.5678164 336.799618,67.0964599 L336.799618,67.0964599 Z M365.068926,73.8327026 L369.712073,73.8327026 C370.847493,73.8327026 371.363896,73.3054172 371.363896,71.0952329 L371.363896,42.5742145 C371.363896,39.3106211 370.847493,38.3629014 369.091935,38.3629014 L365.068926,38.3629014 L365.068926,30.4698834 L373.323536,30.4698834 C378.380485,30.4698834 383.023635,29.9437595 385.397073,29.4164744 L385.397073,71.0952329 C385.397073,73.3042561 385.91348,73.8327026 387.048898,73.8327026 L391.381979,73.8327026 L391.381979,81.7257206 L365.070052,81.7257206 L365.070052,73.8327026 L365.068926,73.8327026 L365.068926,73.8327026 Z M369.608342,17.1030875 C369.608342,12.3668122 373.013467,8.47256712 378.277881,8.47256712 C383.333703,8.47256712 386.945167,12.3668122 386.945167,17.1030875 C386.945167,21.8393629 383.333703,25.7347694 378.277881,25.7347694 C373.014593,25.733608 369.608342,21.8393629 369.608342,17.1030875 L369.608342,17.1030875 Z M395.196396,56.0443764 C395.196396,40.0469619 406.030783,29.1005678 422.229934,29.1005678 C438.019794,29.1005678 448.647846,39.9424342 448.647846,56.0443764 C448.647846,72.1474805 437.917191,83.095036 421.818387,83.095036 C405.825574,83.095036 395.196396,72.2543313 395.196396,56.0443764 L395.196396,56.0443764 Z M434.717274,56.7818789 L434.717274,55.4137248 C434.717274,43.0980152 430.693138,37.520871 422.025852,37.520871 C413.253708,37.520871 409.22957,43.0980152 409.22957,55.4137248 L409.22957,56.7818789 C409.22957,69.0975886 413.151104,74.6735714 421.922121,74.6735714 C430.693138,74.6735714 434.717274,68.9918994 434.717274,56.7818789 L434.717274,56.7818789 Z M472.272878,39.6265276 C475.471665,32.5743783 481.249105,29.1017292 489.299634,29.1017292 C499.927686,29.1017292 505.603645,35.416376 505.603645,48.2570478 L505.603645,71.0963943 C505.603645,73.519119 506.222656,73.8338641 507.356947,73.8338641 L511.896363,73.8338641 L511.896363,81.7280436 L485.893379,81.7280436 L485.893379,73.8338641 L489.917517,73.8338641 C491.051809,73.8338641 491.671946,73.519119 491.671946,71.0963943 L491.671946,48.5717929 C491.671946,41.4139545 489.091043,38.3629014 483.416209,38.3629014 C476.503352,38.3629014 472.478089,43.6241389 472.478089,55.0966569 L472.478089,71.0952329 C472.478089,73.5179575 473.09597,73.8327026 474.231391,73.8327026 L478.256653,73.8327026 L478.256653,81.7268822 L452.251416,81.7268822 L452.251416,73.8327026 L456.791958,73.8327026 C457.927375,73.8327026 458.547516,73.5179575 458.547516,71.0952329 L458.547516,41.5208054 C458.547516,38.9947146 458.132587,38.3629014 456.791958,38.3629014 L452.251416,38.3629014 L452.251416,30.4687219 L460.300817,30.4687219 C465.357767,30.4687219 469.999786,29.9425981 472.271751,29.4164744 L472.271751,39.6265276 L472.272878,39.6265276 L472.272878,39.6265276 Z" fill="#5A7281"></path>
        <path d="M48.9639018,0 C21.9202141,0 0,22.3573567 0,49.9411085 C0,77.521376 21.9202141,99.8822171 48.9639018,99.8822171 C76.0075896,99.8822171 97.9266762,77.521376 97.9266762,49.9411085 C97.9266762,22.3573567 76.0075896,0 48.9639018,0 L48.9639018,0 L48.9639018,0 Z M70.9258342,82.3447579 L48.9639018,66.1475788 L27.0019694,82.3447579 L35.3738428,56.2011684 L13.2788622,39.5614881 L40.6393845,39.5614881 L48.9639018,13.3249846 L57.2884191,39.5614881 L84.6466865,39.5614881 L62.5528334,56.2011684 L70.9258342,82.3447579 L70.9258342,82.3447579 Z" fill="#00A0DE"></path>
    </g>
</svg>

<svg preserveAspectRatio="xMidYMid" viewBox="0 0 512 100" xmlns="http://www.w3.org/2000/svg">
  <path fill="#5A7281" d="M122.29 73.833h4.54c1.134 0 1.754-.315 1.754-2.738V41.521c0-2.526-.414-3.158-1.754-3.158h-4.54v-7.894h8.05c5.055 0 9.697-.526 11.97-1.053v10.105c3.095-6.736 8.048-10.42 15.683-10.42 8.05 0 13.21 3.788 14.963 11.682 2.683-7.578 8.049-11.682 16.511-11.682 10.938 0 16.614 6.209 16.614 19.997v21.996c0 2.423.618 2.738 1.753 2.738h4.54v7.894h-25.797v-7.894h3.818c1.137 0 1.754-.315 1.754-2.738V49.941c0-7.895-2.58-11.368-8.254-11.368-6.399 0-9.597 5.158-9.597 14.946v17.576c0 2.423.62 2.738 1.754 2.738h4.334v7.894h-25.59v-7.894h3.817c1.136 0 1.755-.315 1.755-2.738V48.993c0-6.946-2.889-10.42-8.256-10.42-6.399 0-9.596 5.158-9.596 14.946v17.576c0 2.423.62 2.738 1.754 2.738h4.024v7.894H122.29v-7.894Zm106.998-15.051c.309 9.576 4.953 15.893 14.342 15.893 7.12 0 11.247-3.684 13.622-9.893l7.843 3.577c-2.786 8.211-9.597 14.737-22.6 14.737-18.264 0-27.447-11.263-27.447-27.05 0-15.999 10.627-26.944 26.107-26.944 15.891 0 24.66 10.104 24.66 27.05v2.63h-36.527Zm-.206-7.157h22.7c-.205-10.42-3.301-14.419-10.627-14.419-7.328 0-11.456 4.315-12.073 14.42Zm60.257-11.998c3.198-7.053 8.976-10.525 17.026-10.525 10.63 0 16.304 6.314 16.304 19.155v22.84c0 2.422.62 2.737 1.754 2.737h4.54v7.894h-26.004v-7.894h4.024c1.136 0 1.755-.315 1.755-2.738V48.572c0-7.158-2.58-10.21-8.256-10.21-6.913 0-10.938 5.262-10.938 16.735v15.998c0 2.423.618 2.738 1.753 2.738h4.025v7.894h-26.001v-7.894h4.539c1.135 0 1.756-.315 1.756-2.738V41.521c0-2.526-.414-3.158-1.756-3.158h-4.54v-7.894h8.048c5.057 0 9.699-.526 11.97-1.053v10.21Zm47.46 27.47V38.362h-6.81v-7.051s4.233-.316 3.92-.316c3.51-.632 5.78-2 6.192-5.789l1.033-9.26h9.596V30.47h10.008v7.893H350.42v28.521c0 5.58 1.962 7.475 6.398 7.475 2.168 0 3.507-.423 4.748-.842v8.104c-1.961.631-5.366 1.369-8.978 1.369-11.35-.002-15.788-4.423-15.788-15.895Zm28.27 6.736h4.643c1.135 0 1.652-.528 1.652-2.738v-28.52c0-3.264-.517-4.212-2.272-4.212h-4.023V30.47h8.255c5.056 0 9.7-.526 12.073-1.054v41.68c0 2.208.516 2.737 1.652 2.737h4.333v7.893H365.07v-7.893h-.001Zm4.54-56.73c0-4.736 3.404-8.63 8.669-8.63 5.056 0 8.667 3.894 8.667 8.63 0 4.736-3.611 8.632-8.667 8.632-5.263-.001-8.67-3.896-8.67-8.632Zm25.587 38.941c0-15.997 10.835-26.943 27.034-26.943 15.79 0 26.418 10.841 26.418 26.943 0 16.103-10.73 27.051-26.83 27.051-15.992 0-26.622-10.84-26.622-27.05Zm39.521.738v-1.368c0-12.316-4.024-17.893-12.691-17.893-8.772 0-12.796 5.577-12.796 17.893v1.368c0 12.316 3.921 17.892 12.692 17.892s12.795-5.682 12.795-17.892Zm37.556-17.155c3.199-7.053 8.976-10.525 17.027-10.525 10.628 0 16.304 6.314 16.304 19.155v22.84c0 2.422.619 2.737 1.753 2.737h4.54v7.894h-26.004v-7.894h4.025c1.134 0 1.754-.315 1.754-2.738V48.572c0-7.158-2.581-10.21-8.256-10.21-6.913 0-10.938 5.262-10.938 16.735v15.998c0 2.423.618 2.738 1.753 2.738h4.026v7.894H452.25v-7.894h4.541c1.135 0 1.756-.315 1.756-2.738V41.521c0-2.526-.415-3.158-1.756-3.158h-4.54v-7.894h8.049c5.057 0 9.699-.526 11.97-1.053v10.21h.002Z"/>
  <path fill="#00A0DE" d="M48.964 0C21.92 0 0 22.357 0 49.941c0 27.58 21.92 49.941 48.964 49.941 27.044 0 48.963-22.36 48.963-49.94C97.927 22.356 76.007 0 48.964 0Zm21.962 82.345L48.964 66.148 27.002 82.345 35.374 56.2 13.279 39.56h27.36l8.325-26.236 8.324 26.236h27.359L62.553 56.2l8.373 26.144Z"/>
</svg>
